X: 02094
T: PAGE'S CALLING
C: Bob McQuillen Feb.'76
B: Bob's Note Book 1&2 #94
%R: march
Z: 2019 John Chambers <jc:trillian.mit.edu>
M: C
L: 1/4
K: A
A/B/ \
| ce e>e | fe e>c | BA AA/B/ | cA FE | ce e>e | fe e>c | cB Bc | BG AB |
| ce e>e | fe e>c | BA AA/B/ | cA FE | FA A>f | ec c>d | cB AG | A3 ||
|| A/B/ \
| cA A>d | c A2 c | BA A>F | E3 A/B/ | cA A>d | c A2 c | B>A Bc | BG AB |
| cA A>d | c A2 c | BA A>F | E3 E | F>G AB | c>d e2- | ed cB | A3 |]
%%begintext align
%% With Best Wishes always to Ralph Page,
%% Dean of Dancing, New England Style
%%endtext

%%sep 1 1 500

%%sep 1 1 500

